X:2343
T:Untitled 
C:Traditional
O:Isle of Man
B:Kiaull Vannin 343 
L:1/4
M:4/4 
Q:40 
K:G 
B B/B/ B/G/ B|B>B B2|A A/A/ A/F/ B|B>B B2| 
B B/B/ B>B|A>A E2|c c/A/ c>c|c>c B>B|B A E>F|G4|| 

